X:3025
T:Christmas Eve
S:sessions
R:Reel
O:Ireland
M:C
C:Tommy Coen
B:ceolas misc.tunes dir
K:G
GE|\
D3E G3A|B2dB ABGA|BAGE DB,DE|G2BG ABGE|
D3E G3A|B2dB ABGA|BA (3AAA GEBG|AB GE G2::
GA|\
BABd edeg|a3e  g2eg|a2ge g2ge|dedB AB GA|
BABd edeg|a2ae g2eg|a2ge d2BG|ABGE G2::
dc|\
BG (3GGG dGBd|eg (3ggg egdc|\
BG (3GGG dGAG|EAAG A2 dc|
BG (3GGG dGBd|eggf g3a|bgag edBG|ABGE G2:|


